assets/icons/ic-award.svg

<svg width="25" height="25" viewBox="0 0 25 25" fill="none" xmlns="http://www.w3.org/2000/svg">
<path d="M22.0547 17.7222L19.1084 12.634C19.7113 11.5267 20.0254 10.2853 20.0216 9.02454C20.0216 7.00613 19.2198 5.07039 17.7926 3.64316C16.3654 2.21593 14.4296 1.41412 12.4112 1.41412C10.3928 1.41412 8.45707 2.21593 7.02984 3.64316C5.60261 5.07039 4.8008 7.00613 4.8008 9.02454C4.79706 10.2853 5.11115 11.5267 5.71405 12.634L2.76773 17.7222C2.67213 17.8877 2.62188 18.0756 2.62207 18.2668C2.62226 18.458 2.67287 18.6458 2.76881 18.8112C2.86474 18.9766 3.0026 19.1138 3.16848 19.2089C3.33436 19.304 3.52239 19.3537 3.7136 19.353H6.83387L8.42118 22.0275C8.47469 22.1161 8.54059 22.1967 8.61688 22.2667C8.81842 22.4609 9.08713 22.57 9.36705 22.5711H9.51926C9.68339 22.5486 9.84022 22.4889 9.97777 22.3966C10.1153 22.3043 10.23 22.1817 10.3129 22.0383L12.4112 18.4288L14.5095 22.071C14.5937 22.2123 14.7089 22.3328 14.8463 22.4231C14.9838 22.5135 15.14 22.5716 15.3032 22.5928H15.4554C15.7391 22.5945 16.0122 22.4853 16.2164 22.2884C16.2895 22.2224 16.3519 22.1454 16.4012 22.0601L17.9886 19.3856H21.1088C21.3004 19.3863 21.4888 19.3365 21.6549 19.241C21.821 19.1455 21.9589 19.0079 22.0547 18.842C22.1563 18.6729 22.21 18.4793 22.21 18.2821C22.21 18.0848 22.1563 17.8912 22.0547 17.7222ZM9.35618 19.3856L8.38857 17.7656C8.29329 17.6049 8.1582 17.4715 7.99633 17.3782C7.83446 17.2848 7.65128 17.2348 7.46445 17.2329H5.58359L7.13829 14.5367C8.20888 15.5683 9.5582 16.2637 11.0196 16.5371L9.35618 19.3856ZM12.4112 14.4605C11.3361 14.4605 10.2851 14.1417 9.39113 13.5444C8.49718 12.9471 7.80044 12.0981 7.389 11.1048C6.97756 10.1115 6.86991 9.01851 7.07966 7.96403C7.28941 6.90954 7.80714 5.94094 8.56738 5.1807C9.32762 4.42046 10.2962 3.90273 11.3507 3.69298C12.4052 3.48323 13.4982 3.59088 14.4915 4.00232C15.4848 4.41376 16.3338 5.11051 16.9311 6.00445C17.5284 6.8984 17.8472 7.9494 17.8472 9.02454C17.8472 10.4663 17.2745 11.8489 16.2551 12.8684C15.2356 13.8878 13.8529 14.4605 12.4112 14.4605ZM17.358 17.2329C17.1712 17.2348 16.988 17.2848 16.8261 17.3782C16.6642 17.4715 16.5291 17.6049 16.4339 17.7656L15.4663 19.3856L13.8137 16.5045C15.27 16.2255 16.6143 15.5307 17.6841 14.504L19.2388 17.2003L17.358 17.2329Z" fill="#37352F"/>
</svg>

<svg xmlns="http://www.w3.org/2000/svg" width="25" height="25" fill="none" xmlns:v="https://vecta.io/nano"><path d="M22.055 17.722l-2.946-5.088a7.5 7.5 0 0 0 .913-3.609 7.61 7.61 0 0 0-7.61-7.61 7.61 7.61 0 0 0-7.61 7.61 7.5 7.5 0 0 0 .913 3.609l-2.946 5.088c-.096.165-.146.353-.146.545s.051.379.147.544.234.303.4.398a1.09 1.09 0 0 0 .545.144h3.12l1.587 2.674a1.09 1.09 0 0 0 .196.239c.202.194.47.303.75.304h.152a1.09 1.09 0 0 0 .459-.175c.138-.092.252-.215.335-.358l2.098-3.61 2.098 3.642a1.09 1.09 0 0 0 .337.352c.138.09.294.148.457.17h.152c.284.002.557-.108.761-.304.073-.066.136-.143.185-.228l1.587-2.674h3.12a1.09 1.09 0 0 0 .946-.544c.102-.169.155-.363.155-.56s-.054-.391-.155-.56zM9.356 19.386l-.968-1.62c-.095-.161-.23-.294-.392-.387s-.345-.143-.532-.145H5.584l1.555-2.696a7.61 7.61 0 0 0 3.881 2l-1.663 2.849zm3.055-4.925c-1.075 0-2.126-.319-3.02-.916s-1.591-1.446-2.002-2.44-.519-2.086-.309-3.141.727-2.023 1.488-2.783 1.729-1.278 2.783-1.488 2.148-.102 3.141.309 1.842 1.108 2.44 2.002.916 1.945.916 3.02c0 1.442-.573 2.824-1.592 3.844s-2.402 1.592-3.844 1.592zm4.947 2.772c-.187.002-.37.052-.532.145s-.297.227-.392.387l-.968 1.62-1.653-2.881c1.456-.279 2.801-.974 3.87-2.001l1.555 2.696-1.881.033z" fill="#37352f"/></svg>
